X:1
T:Title
%%score { ( 1 3 ) | ( 2 4 ) }
L:1/8
M:4/4
K:Bb
V:1 treble nm="Grand Piano"
V:3 treble 
V:2 treble 
V:4 treble 
V:1
 z4 z[Q:1/4=82] F/F/ GF | B6[K:bass][K:treble] z2 | F6[K:bass][K:treble] z2 | %3
 c6[K:bass][K:treble] z2 | B6[K:bass][K:treble] z2 | d6[K:bass][K:treble] z2 | %6
 e6[K:bass][K:treble] z2 | c6[K:bass][K:treble] z2 |[M:5/8] B-B- B3 |[M:3/8][K:bass] B,,/C,/D,B,, | %10
[M:4/4] z[K:treble] c/c/ cd e[K:bass]F,/F,/ G,F, | B,[K:treble]d/d/ ee .[Fd]2 z2 | %12
 z [=Ec]/[Ec]/ [Ed][Ec] [Ec]C/D/ CB, | z c/c/ cc c[K:bass]F,/F,/ B,C | %14
 z[K:treble] B/B/ BB BB,/D/ CB, |[M:17/16] z c/c/cd[Ge]>cc/dB |[M:4/4] c6 z2 |[M:5/8] B-B- B3 |] %18
V:2
 z4 z D/D/ ED | D6[K:bass] z2 | D6[K:treble] z2 | E6[K:bass][K:treble] z2 | %4
 D6[K:bass][K:treble] z2 | F6[K:bass][K:treble] z2 | G6[K:bass][K:treble] z2 | E6[K:bass] z2 | %8
[M:5/8] z F,/F,/=E, E,F, |[M:3/8] z3 |[M:4/4] z[K:treble] [A,F]/[A,F]/ [A,F][B,F] .[CF]2 z2 | %11
 z [B,F]/[B,F]/ GG B,[K:bass]B,/B,/ A,B, | C6 z2 | z[K:treble] [F,F]/[F,F]/ [F,F][F,F] .[F,F]2 z2 | %14
 z [B,F]/[B,F]/ [B,F][B,F] .[B,F]2 z2 | %15
[M:17/16] z[K:bass] [E,E]/[E,E]/[E,E][E,F][E,C]3/2 z/ z/ z/ z/ z | %16
[M:4/4] z [F,A,]/[F,A,]/ [F,A,][F,A,] [F,A,][F,CE]/[F,CE]/ [F,CE][F,CE] | %17
[M:5/8] z F,/F,/=E, E,F, |] %18
V:3
 x8 | z[K:bass] F,/F,/ F,B, B,[K:treble]F/G/ FD | z[K:bass] B,/B,/ B,B, B,[K:treble]B/B/ AB | %3
 z[K:bass] A,/A,/ A,A, A,[K:treble]A/A/ GF | z[K:bass] F,/F,/ F,F, F,[K:treble]F/F/ Bc | %5
 z[K:bass] B,/B,/ B,B, B,[K:treble]B/B/ cd | z[K:bass] B,/B,/ B,B, B,[K:treble]c/c/ dB | %7
 z[K:bass] A,/A,/ A,A, A,[K:treble]A/A/ GF |[M:5/8] [B,D]D/D/_D D=D |[M:3/8][K:bass] x3 | %10
[M:4/4] F,6[K:treble][K:bass] z2 | x[K:treble] x7 | x8 | A,6[K:bass] z2 | D6[K:treble] z2 | %15
[M:17/16] G,/-G,/-G,/-G,/-G,-<G, z/ z/ z/ z/ z/ z/ z/ z |[M:4/4] z E/E/ EE EA/A/ GF | %17
[M:5/8] [B,D]D/D/_D D=D |] %18
V:4
 x8 | z[K:bass] B,,/B,,/ D,F, z D/E/ DB, | z B,,/B,,/ D,F, z[K:treble] D/D/ CD | %3
 z[K:bass] F,/F,/ F,F, F,[K:treble]E/E/ EE | z[K:bass] B,,/B,,/ B,,B,, B,,[K:treble]D/D/ DE | %5
 z[K:bass] B,,/B,,/ D,F, z D/[K:treble]D/ EF | z[K:bass] E,/E,/ E,E, E,[K:treble]E/E/ FD | %7
 z[K:bass] F,/F,/ F,F, F,[F,CE]/[F,CE]/ [F,CE][F,CE] |[M:5/8] B,,-B,,- B,,3 |[M:3/8] x3 | %10
[M:4/4] x[K:treble] x7 | z2 B,2 z4[K:bass] | z C,/C,/ C,C, .C,2 z2 | x[K:treble] x7 | x8 | %15
[M:17/16] x[K:bass] x15/2 |[M:4/4] x8 |[M:5/8] B,,-B,,- B,,3 |] %18

